src/components/00-materials/images-raw/Dog.svg

<svg width="96" height="96" viewBox="0 0 96 96" fill="none" xmlns="http://www.w3.org/2000/svg">
<path d="M57 6.44991C60.1957 5.0601 63.7345 4.65955 67.16 5.29991C68.4269 5.59708 69.6052 6.19081 70.5979 7.03224C71.5906 7.87368 72.3693 8.93877 72.87 10.1399L80.4 11.6499C80.8867 11.7258 81.3282 11.9786 81.64 12.3599C81.8063 12.5294 81.9357 12.7316 82.02 12.9536C82.1044 13.1756 82.1418 13.4127 82.13 13.6499C82.1753 15.3554 81.7972 17.0455 81.0293 18.569C80.2614 20.0925 79.1279 21.4018 77.73 22.3799C75.6676 23.8547 73.2926 24.8335 70.79 25.2399C70.3185 25.3216 69.8904 25.5657 69.58 25.9299C69.4181 26.083 69.2829 26.2622 69.18 26.4599C69.0702 26.6775 69.0088 26.9163 69 27.1599V27.2199L68.28 34.4599C68.5988 35.9945 69.2851 37.4288 70.28 38.6399C75.11 47.4099 67.68 58.2899 66.28 60.4699C65.9306 61.0366 65.6167 61.6244 65.34 62.2299C65.34 62.6699 65.27 63.0999 65.25 63.5299C65.0174 66.1129 64.9339 68.7073 65 71.2999C65.118 74.8989 66.5149 78.338 68.94 80.9999C71.17 83.0899 72.94 86.1999 72.74 87.9999C72.38 89.4699 71.62 90.3099 69.3 90.3499C67.51 90.1899 66.77 89.0399 64.3 85.4299C61.67 81.5499 57.36 75.2099 57.3 75.0099M41.12 69.3499C42.2347 67.9898 43.6941 66.954 45.3459 66.3506C46.9976 65.7472 48.7811 65.5985 50.51 65.9199C55.51 66.7099 59.17 71.4399 56.27 80.2799C55.8277 81.701 55.3069 83.0965 54.71 84.4599C57.61 84.3299 64.6 81.9199 64.81 87.3499C64.8165 87.9893 64.6581 88.6196 64.35 89.1799C62.49 92.2499 50.93 90.7299 42.96 89.6999C39.8059 89.3447 36.634 89.171 33.46 89.1799C26.11 89.1299 22.09 88.6899 16.46 84.4099C10.83 80.1299 9.09 69.8799 10.16 64.0599C11.36 57.5499 18.16 50.6999 19.16 48.0099C20.65 44.0099 20.45 40.0999 17.56 34.8199C26.12 39.0932 27.2667 46.9799 21 58.4799C17.5467 65.5999 17.2133 71.8432 20 77.2099C21.58 80.2232 23.2167 82.2766 24.91 83.3699C24.91 72.5899 26.91 63.4166 30.91 55.8499C32.33 53.1832 34.95 48.9632 38.77 43.1899C42.91 37.5432 45.41 34.1866 46.27 33.1199C48.227 30.688 49.4544 27.7511 49.81 24.6499C49.95 23.8199 50.34 20.4899 50.37 19.0999" stroke="#00008F" stroke-width="2" stroke-linecap="round" stroke-linejoin="round"/>
<path d="M68.28 34.77C64.3623 36.0001 60.2349 36.4186 56.15 36C52.7289 35.5693 49.3995 34.5901 46.29 33.0999M49.07 28C49.07 28 59.28 33 68.81 29.15M52.05 11.23L53.27 9.35995C54.274 8.11706 55.5502 7.12145 57 6.44995C58.5507 8.52058 59.9351 10.7108 61.14 13C62.9533 16.5066 63.8433 19.5066 63.81 22C63.7818 22.1485 63.7202 22.2886 63.63 22.41C63.5425 22.5349 63.4301 22.6404 63.3 22.72C61.5301 23.3978 59.6242 23.6446 57.74 23.44C54.8366 23.0017 52.2088 21.4751 50.39 19.17C50.4501 16.4437 51.0128 13.7519 52.05 11.23Z" stroke="#00008F" stroke-width="2" stroke-linecap="round" stroke-linejoin="round"/>
<path d="M68.56 13.3699C68.8914 13.3699 69.16 13.1013 69.16 12.7699C69.16 12.4386 68.8914 12.1699 68.56 12.1699C68.2286 12.1699 67.96 12.4386 67.96 12.7699C67.96 13.1013 68.2286 13.3699 68.56 13.3699Z" stroke="#00008F" stroke-width="2" stroke-miterlimit="10"/>
</svg>

<svg width="96" height="96" viewBox="0 0 96 96" fill="none" xmlns="http://www.w3.org/2000/svg"><path d="M57 6.45A17.44 17.44 0 0167.16 5.3a8.22 8.22 0 015.71 4.84l7.53 1.51a2 2 0 011.24.71 1.72 1.72 0 01.49 1.29 10.32 10.32 0 01-4.4 8.73 16.47 16.47 0 01-6.94 2.86 2.05 2.05 0 00-1.21.69 2.001 2.001 0 00-.4.53 1.69 1.69 0 00-.18.7v.06l-.72 7.24a9.69 9.69 0 002 4.18c4.83 8.77-2.6 19.65-4 21.83a16.12 16.12 0 00-.94 1.76c0 .44-.07.87-.09 1.3A67.464 67.464 0 0065 71.3a15.14 15.14 0 003.94 9.7c2.23 2.09 4 5.2 3.8 7-.36 1.47-1.12 2.31-3.44 2.35-1.79-.16-2.53-1.31-5-4.92-2.63-3.88-6.94-10.22-7-10.42m-16.18-5.66a9.82 9.82 0 019.39-3.43c5 .79 8.66 5.52 5.76 14.36a40.241 40.241 0 01-1.56 4.18c2.9-.13 9.89-2.54 10.1 2.89a3.72 3.72 0 01-.46 1.83c-1.86 3.07-13.42 1.55-21.39.52a82.816 82.816 0 00-9.5-.52c-7.35-.05-11.37-.49-17-4.77-5.63-4.28-7.37-14.53-6.3-20.35 1.2-6.51 8-13.36 9-16.05 1.49-4 1.29-7.91-1.6-13.19 8.56 4.273 9.707 12.16 3.44 23.66-3.453 7.12-3.787 13.363-1 18.73 1.58 3.013 3.217 5.067 4.91 6.16 0-10.78 2-19.953 6-27.52 1.42-2.667 4.04-6.887 7.86-12.66 4.14-5.647 6.64-9.003 7.5-10.07a16.51 16.51 0 003.54-8.47c.14-.83.53-4.16.56-5.55" stroke="#00008F" stroke-width="2" stroke-linecap="round" stroke-linejoin="round"/><path d="M68.28 34.77A30.211 30.211 0 0156.15 36a32.09 32.09 0 01-9.86-2.9m2.78-5.1s10.21 5 19.74 1.15M52.05 11.23l1.22-1.87A10.43 10.43 0 0157 6.45 49.001 49.001 0 0161.14 13c1.813 3.507 2.703 6.507 2.67 9a1 1 0 01-.18.41c-.088.125-.2.23-.33.31-1.77.678-3.676.925-5.56.72a11.56 11.56 0 01-7.35-4.27c.06-2.726.623-5.418 1.66-7.94z" stroke="#00008F" stroke-width="2" stroke-linecap="round" stroke-linejoin="round"/><path d="M68.56 13.37a.6.6 0 100-1.2.6.6 0 000 1.2z" stroke="#00008F" stroke-width="2" stroke-miterlimit="10"/></svg>
